img/icons/inst.svg

<svg width="24" height="25" viewBox="0 0 24 25" fill="none" xmlns="http://www.w3.org/2000/svg">
<path d="M21.5465 8.41799C21.5004 7.39573 21.3352 6.69629 21.1009 6.08524C20.8551 5.45498 20.5286 4.91694 19.9948 4.3866C19.4609 3.85626 18.927 3.52191 18.2972 3.27979C17.6865 3.04152 16.9875 2.88011 15.9658 2.834C14.9403 2.78788 14.6139 2.77635 12.0098 2.77635C9.40194 2.77635 9.07548 2.78788 8.05383 2.834C7.03219 2.88011 6.33317 3.04537 5.72249 3.27979C5.08876 3.52575 4.55105 3.85241 4.02103 4.3866C3.491 4.92079 3.15685 5.45498 2.91488 6.08524C2.6806 6.69629 2.51544 7.39573 2.46935 8.41799C2.42327 9.44409 2.41174 9.77075 2.41174 12.3764C2.41174 14.9858 2.42327 15.3125 2.46935 16.3347C2.51544 17.357 2.6806 18.0564 2.91488 18.6675C3.16069 19.2977 3.48716 19.8358 4.02103 20.3661C4.55105 20.9003 5.08876 21.2308 5.71864 21.4729C6.32933 21.7112 7.02835 21.8726 8.04999 21.9187C9.07548 21.9648 9.40194 21.9764 12.006 21.9764C14.6139 21.9764 14.9403 21.9648 15.962 21.9187C16.9836 21.8726 17.6826 21.7073 18.2933 21.4729C18.9232 21.227 19.4609 20.9003 19.9909 20.3661C20.521 19.8319 20.8551 19.2977 21.0971 18.6675C21.3352 18.0564 21.4965 17.357 21.5426 16.3347C21.5887 15.3086 21.6002 14.982 21.6002 12.3764C21.6002 9.77075 21.5925 9.44024 21.5465 8.41799ZM19.8219 16.2579C19.7797 17.1956 19.6222 17.7067 19.4916 18.041C19.3188 18.4868 19.1076 18.8097 18.7696 19.1479C18.4316 19.486 18.1128 19.6897 17.6634 19.8703C17.3254 20.001 16.8146 20.1586 15.8813 20.2009C14.8712 20.247 14.5678 20.2585 12.0021 20.2585C9.43651 20.2585 9.13309 20.247 8.12297 20.2009C7.18582 20.1586 6.675 20.001 6.34085 19.8703C5.89532 19.6974 5.5727 19.486 5.23471 19.1479C4.89672 18.8097 4.69316 18.4907 4.51264 18.041C4.38206 17.7029 4.22459 17.1917 4.18234 16.2579C4.13625 15.2471 4.12473 14.9435 4.12473 12.3764C4.12473 9.80918 4.13625 9.50558 4.18234 8.49485C4.22459 7.55714 4.38206 7.04601 4.51264 6.71166C4.68548 6.26586 4.89672 5.94305 5.23471 5.60486C5.5727 5.26666 5.89148 5.06298 6.34085 4.88236C6.67884 4.75169 7.18966 4.59413 8.12297 4.55185C9.13309 4.50574 9.43651 4.49421 12.0021 4.49421C14.5678 4.49421 14.8712 4.50574 15.8813 4.55185C16.8185 4.59413 17.3293 4.75169 17.6634 4.88236C18.109 5.0553 18.4316 5.26666 18.7696 5.60486C19.1076 5.94305 19.3111 6.26202 19.4916 6.71166C19.6222 7.04985 19.7797 7.56098 19.8219 8.49485C19.868 9.50558 19.8796 9.80918 19.8796 12.3764C19.8796 14.9435 19.8642 15.2471 19.8219 16.2579Z" fill="white"/>
<path d="M12.0022 7.44184C9.27528 7.44184 7.07068 9.65161 7.07068 12.3763C7.07068 15.1049 9.27912 17.3109 12.0022 17.3109C14.7253 17.3109 16.9338 15.0972 16.9338 12.3763C16.9338 9.64777 14.7292 7.44184 12.0022 7.44184ZM12.0022 15.5776C10.2355 15.5776 8.80287 14.1442 8.80287 12.3763C8.80287 10.6085 10.2355 9.17507 12.0022 9.17507C13.769 9.17507 15.2016 10.6085 15.2016 12.3763C15.2016 14.1442 13.769 15.5776 12.0022 15.5776Z" fill="white"/>
<path d="M17.126 8.40262C17.7623 8.40262 18.2782 7.88644 18.2782 7.24969C18.2782 6.61295 17.7623 6.09677 17.126 6.09677C16.4896 6.09677 15.9738 6.61295 15.9738 7.24969C15.9738 7.88644 16.4896 8.40262 17.126 8.40262Z" fill="white"/>
<path d="M2.40002 12.3764C2.40002 14.9858 2.41155 15.3125 2.45764 16.3347C2.50373 17.357 2.66888 18.0564 2.90317 18.6675C3.14897 19.2977 3.47544 19.8358 4.00931 20.3661C4.53933 20.8964 5.07704 21.2308 5.70693 21.4729C6.31761 21.7112 7.01663 21.8726 8.03827 21.9187C9.06376 21.9648 9.39022 21.9764 11.9943 21.9764C14.6021 21.9764 14.9286 21.9648 15.9503 21.9187C16.9719 21.8726 17.6709 21.7073 18.2816 21.4729C18.9115 21.227 19.4492 20.9003 19.9792 20.3661C20.5092 19.8358 20.8434 19.2977 21.0854 18.6675C21.3235 18.0564 21.4848 17.357 21.5309 16.3347C21.577 15.3086 21.5885 14.982 21.5885 12.3764C21.5885 9.7669 21.577 9.44024 21.5309 8.41799C21.4848 7.39573 21.3196 6.69629 21.0854 6.08524C20.8396 5.45498 20.5131 4.91694 19.9792 4.3866C19.453 3.85241 18.9153 3.52191 18.2854 3.27979C17.6748 3.04152 16.9757 2.88011 15.9541 2.834C14.9286 2.78788 14.6021 2.77635 11.9981 2.77635C9.39022 2.77635 9.06376 2.78788 8.04211 2.834C7.02047 2.88011 6.32145 3.04537 5.71077 3.27979C5.08088 3.52575 4.54317 3.85241 4.01315 4.3866C3.48312 4.92079 3.14897 5.45498 2.90701 6.08524C2.66888 6.69629 2.50373 7.39573 2.45764 8.41799C2.41155 9.44024 2.40002 9.7669 2.40002 12.3764ZM4.13221 12.3764C4.13221 9.81302 4.14373 9.50558 4.18982 8.49485C4.23207 7.55714 4.38954 7.04601 4.52013 6.71166C4.69296 6.26586 4.90421 5.94305 5.24219 5.60486C5.58018 5.26666 5.89896 5.06298 6.34833 4.88236C6.68632 4.75169 7.19714 4.59413 8.13045 4.55185C9.14057 4.50574 9.44399 4.49421 12.0096 4.49421C14.5753 4.49421 14.8787 4.50574 15.8888 4.55185C16.826 4.59413 17.3368 4.75169 17.6709 4.88236C18.1164 5.0553 18.4391 5.26666 18.7771 5.60486C19.115 5.94305 19.3186 6.26202 19.4991 6.71166C19.6297 7.04985 19.7872 7.56098 19.8294 8.49485C19.8755 9.50558 19.887 9.80918 19.887 12.3764C19.887 14.9435 19.8755 15.2471 19.8294 16.2579C19.7872 17.1956 19.6297 17.7067 19.4991 18.041C19.3263 18.4868 19.115 18.8097 18.7771 19.1479C18.4391 19.486 18.1203 19.6897 17.6709 19.8703C17.3329 20.001 16.8221 20.1586 15.8888 20.2009C14.8787 20.247 14.5753 20.2585 12.0096 20.2585C9.44399 20.2585 9.14057 20.247 8.13045 20.2009C7.1933 20.1586 6.68248 20.001 6.34833 19.8703C5.90281 19.6974 5.58018 19.486 5.24219 19.1479C4.90421 18.8097 4.70064 18.4907 4.52013 18.041C4.38954 17.7029 4.23207 17.1917 4.18982 16.2579C4.13989 15.2471 4.13221 14.9397 4.13221 12.3764Z" fill="white"/>
</svg>

<svg width="24" height="25" fill="none" xmlns="http://www.w3.org/2000/svg"><path d="M21.547 8.418c-.047-1.022-.212-1.722-.446-2.333a4.681 4.681 0 00-1.106-1.698 4.71 4.71 0 00-1.698-1.107c-.61-.238-1.31-.4-2.331-.446-1.026-.046-1.352-.058-3.956-.058-2.608 0-2.935.012-3.956.058-1.022.046-1.72.211-2.332.446a4.659 4.659 0 00-1.701 1.107 4.713 4.713 0 00-1.106 1.698c-.234.611-.4 1.31-.446 2.333-.046 1.026-.057 1.353-.057 3.958 0 2.61.011 2.937.057 3.959.046 1.022.212 1.721.446 2.332a4.68 4.68 0 001.106 1.7 4.64 4.64 0 001.698 1.106c.61.238 1.31.4 2.331.446 1.025.046 1.352.057 3.956.057 2.608 0 2.934-.011 3.956-.057 1.022-.046 1.72-.212 2.331-.446a4.676 4.676 0 001.698-1.107 4.713 4.713 0 001.106-1.698c.238-.612.4-1.311.446-2.333.046-1.026.057-1.353.057-3.959 0-2.605-.008-2.936-.053-3.958zm-1.725 7.84c-.042.938-.2 1.449-.33 1.783a2.99 2.99 0 01-.722 1.107 3.054 3.054 0 01-1.107.722c-.338.131-.848.289-1.782.33-1.01.047-1.313.059-3.879.059-2.565 0-2.869-.012-3.879-.058-.937-.042-1.448-.2-1.782-.33a2.988 2.988 0 01-1.106-.723 3.056 3.056 0 01-.722-1.107c-.13-.338-.288-.85-.33-1.783-.047-1.01-.058-1.314-.058-3.882 0-2.567.011-2.87.057-3.881.043-.938.2-1.449.33-1.783a2.99 2.99 0 01.723-1.107 3.053 3.053 0 011.106-.723c.338-.13.849-.288 1.782-.33 1.01-.046 1.314-.058 3.88-.058 2.565 0 2.868.012 3.878.058.938.042 1.448.2 1.782.33.446.173.769.385 1.107.723.338.338.541.657.722 1.107.13.338.288.849.33 1.783.046 1.01.058 1.314.058 3.881 0 2.568-.016 2.871-.058 3.882z" fill="#fff"/><path d="M12.002 7.442a4.931 4.931 0 00-4.931 4.934 4.931 4.931 0 109.863 0 4.929 4.929 0 00-4.932-4.934zm0 8.136a3.2 3.2 0 11.003-6.402 3.2 3.2 0 01-.003 6.402zm5.124-7.175a1.153 1.153 0 100-2.306 1.153 1.153 0 000 2.306z" fill="#fff"/><path d="M2.4 12.376c0 2.61.012 2.937.058 3.959.046 1.022.21 1.721.445 2.332a4.68 4.68 0 001.106 1.7c.53.53 1.068.864 1.698 1.106.61.238 1.31.4 2.331.446 1.026.046 1.352.057 3.956.057 2.608 0 2.935-.011 3.956-.057 1.022-.046 1.72-.212 2.332-.446a4.676 4.676 0 001.697-1.107c.53-.53.864-1.068 1.106-1.698.238-.612.4-1.311.446-2.333.046-1.026.058-1.353.058-3.959 0-2.61-.012-2.936-.058-3.958-.046-1.022-.211-1.722-.446-2.333a4.68 4.68 0 00-1.106-1.698 4.584 4.584 0 00-1.694-1.107c-.61-.238-1.31-.4-2.33-.446-1.026-.046-1.353-.058-3.957-.058-2.608 0-2.934.012-3.956.058-1.022.046-1.72.211-2.331.446a4.677 4.677 0 00-1.698 1.107 4.713 4.713 0 00-1.106 1.698c-.238.611-.403 1.31-.45 2.333C2.413 9.44 2.4 9.767 2.4 12.376zm1.732 0c0-2.563.012-2.87.058-3.881.042-.938.2-1.449.33-1.783a2.99 2.99 0 01.722-1.107 3.053 3.053 0 011.106-.723c.338-.13.85-.288 1.782-.33 1.01-.046 1.314-.058 3.88-.058 2.565 0 2.869.012 3.879.058.937.042 1.448.2 1.782.33.445.173.768.385 1.106.723.338.338.542.657.722 1.107.13.338.288.849.33 1.783.046 1.01.058 1.314.058 3.881 0 2.568-.012 2.871-.058 3.882-.042.938-.2 1.449-.33 1.783a2.991 2.991 0 01-.722 1.107 3.054 3.054 0 01-1.106.722c-.338.131-.849.289-1.782.33-1.01.047-1.314.059-3.88.059-2.565 0-2.868-.012-3.879-.058-.937-.042-1.448-.2-1.782-.33a2.989 2.989 0 01-1.106-.723 3.056 3.056 0 01-.722-1.107c-.13-.338-.288-.85-.33-1.783-.05-1.01-.058-1.318-.058-3.882z" fill="#fff"/></svg>
